human-male-boy.svg

<svg  viewBox="0 0 24 24" fill="currentColor"><path  d="M7.5,2A2,2 0 0,1 9.5,4A2,2 0 0,1 7.5,6A2,2 0 0,1 5.5,4A2,2 0 0,1 7.5,2M6,7H9A2,2 0 0,1 11,9V14.5H9.5V22H5.5V14.5H4V9A2,2 0 0,1 6,7M14.5,12A2,2 0 0,1 16.5,10A2,2 0 0,1 18.5,12A2,2 0 0,1 16.5,14A2,2 0 0,1 14.5,12M13.5,15H19.5V19H18V22H15V19H13.5V15Z"/></svg>

<svg fill="currentColor" viewBox="0 0 24 24"><path d="M7.5 2a2 2 0 0 1 2 2 2 2 0 0 1-2 2 2 2 0 0 1-2-2 2 2 0 0 1 2-2M6 7h3a2 2 0 0 1 2 2v5.5H9.5V22h-4v-7.5H4V9a2 2 0 0 1 2-2m8.5 5a2 2 0 0 1 2-2 2 2 0 0 1 2 2 2 2 0 0 1-2 2 2 2 0 0 1-2-2m-1 3h6v4H18v3h-3v-3h-1.5z"/></svg>
